X:295
T:Reel 295
M:4/4
K:Amaj
L:1/8
A,2|A,2A,B, CDCB,|A,DCB, CDCB,|A,G,A,B, A,B,CD|EDCD B,2CB,|A,G,A,B, CB,CA,|F,G,A,C D2CD|EDEF EDCB,| (3F,G,A, G,B, A,2|CE|FGFA GECE|ABAF G2FG|A2FA G2EG| (3FGA ED CB,CD|EDCB, A,C (3B,CB, |A,G,F,E, E,2G,E,| (3F,G,A, B,G, A,B,CD| (3EFG AF EDCD|
